src/assets/filled/MessageMinus.svg

<?xml version="1.0" encoding="UTF-8"?>
<svg width="24" height="24" viewBox="0 0 24 24" xmlns="http://www.w3.org/2000/svg">
 <path d="m16 2h-8c-4 0-6 2-6 6v13c0 0.55 0.45 1 1 1h13c4 0 6-2 6-6v-8c0-4-2-6-6-6zm-0.5 10.75h-7c-0.41 0-0.75-0.34-0.75-0.75s0.34-0.75 0.75-0.75h7c0.41 0 0.75 0.34 0.75 0.75s-0.34 0.75-0.75 0.75z"/>
</svg>

<svg width="24" height="24" viewBox="0 0 24 24"  xmlns="http://www.w3.org/2000/svg">
<path d="M16 2H8C4 2 2 4 2 8V21C2 21.55 2.45 22 3 22H16C20 22 22 20 22 16V8C22 4 20 2 16 2ZM15.5 12.75H8.5C8.09 12.75 7.75 12.41 7.75 12C7.75 11.59 8.09 11.25 8.5 11.25H15.5C15.91 11.25 16.25 11.59 16.25 12C16.25 12.41 15.91 12.75 15.5 12.75Z" />
</svg>
